actions/symbolic/media-playlist-shuffle-rtl-symbolic.svg

<?xml version="1.0" encoding="UTF-8" standalone="no"?>
<svg
   xmlns:dc="http://purl.org/dc/elements/1.1/"
   xmlns:cc="http://creativecommons.org/ns#"
   xmlns:rdf="http://www.w3.org/1999/02/22-rdf-syntax-ns#"
   xmlns:svg="http://www.w3.org/2000/svg"
   xmlns="http://www.w3.org/2000/svg"
   xmlns:sodipodi="http://sodipodi.sourceforge.net/DTD/sodipodi-0.dtd"
   xmlns:inkscape="http://www.inkscape.org/namespaces/inkscape"
   viewBox="0 0 16 16"
   id="svg3247"
   version="1.1"
   inkscape:version="0.91 r13725"
   sodipodi:docname="media-playlist-shuffle-rtl-symbolic.svg">
  <metadata
     id="metadata3255">
    <rdf:RDF>
      <cc:Work
         rdf:about="">
        <dc:format>image/svg+xml</dc:format>
        <dc:type
           rdf:resource="http://purl.org/dc/dcmitype/StillImage" />
        <dc:title></dc:title>
      </cc:Work>
    </rdf:RDF>
  </metadata>
  <sodipodi:namedview
     pagecolor="#ffffff"
     bordercolor="#666666"
     borderopacity="1"
     objecttolerance="10"
     gridtolerance="10"
     guidetolerance="10"
     inkscape:pageopacity="0"
     inkscape:pageshadow="2"
     inkscape:window-width="640"
     inkscape:window-height="480"
     id="namedview3253"
     showgrid="false"
     inkscape:zoom="41.1875"
     inkscape:cx="-0.10925644"
     inkscape:cy="8"
     inkscape:current-layer="svg3247" />
  <defs
     id="defs3051">
    <style
       type="text/css"
       id="current-color-scheme">
      .ColorScheme-Text {
        color:#bebebe;
      }
      </style>
  </defs>
  <path
     style="color:#bebebe;fill:currentColor;fill-opacity:1;stroke:none"
     class="ColorScheme-Text"
     d="M 12.530517,2.500001 13.5,3.4694845 9.945679,7.0238046 8.9694815,6.0543211 12.530517,2.500001 Z m -6.249267,0 L 4.879395,3.9018502 13.5,12.530516 12.530517,13.5 3.901855,4.8794003 2.5,6.2812496 l 0,-3.7812486 3.78125,0 z M 6.05432,8.969484 7.023805,9.9390262 4.871339,12.090143 6.28125,13.5 2.5,13.5 2.5,9.7187514 3.901855,11.120601 6.0543222,8.969484 Z"
     id="path3251"
     inkscape:connector-curvature="0" />
</svg>

<svg xmlns="http://www.w3.org/2000/svg" viewBox="0 0 16 16">
  <path fill="#bebebe" d="M12.53 2.5l.97.97-3.554 3.554-.977-.97L12.531 2.5zm-6.249 0L4.88 3.902l8.62 8.628-.97.969-8.628-8.62L2.5 6.28V2.5zm-.227 6.47l.97.969L4.87 12.09l1.41 1.41H2.5V9.719l1.402 1.402 2.152-2.152z"/>
</svg>
